svgs/thin/smoking.svg

<svg xmlns="http://www.w3.org/2000/svg" viewBox="0 0 640 512"><!--! Font Awesome Pro 6.6.0 by @fontawesome - https://fontawesome.com License - https://fontawesome.com/license (Commercial License) Copyright 2024 Fonticons, Inc. --><path d="M456 0c-4.4 0-8 3.6-8 8l0 35c0 46.7 18.5 91.4 51.5 124.5l21 21c15 15 23.4 35.4 23.4 56.6l0 35c0 4.4 3.6 8 8 8s8-3.6 8-8l0-35c0-25.5-10.1-49.9-28.1-67.9l-21-21C480.9 126.1 464 85.4 464 43l0-35c0-4.4-3.6-8-8-8zM632 288c4.4 0 8-3.6 8-8l0-35c0-46.7-18.5-91.4-51.5-124.5l-21-21C552.4 84.5 544 64.2 544 43l0-35c0-4.4-3.6-8-8-8s-8 3.6-8 8l0 35c0 25.5 10.1 49.9 28.1 67.9l21 21c30 30 46.9 70.7 46.9 113.1l0 35c0 4.4 3.6 8 8 8zM48 368l176 0 0 128L48 496c-17.7 0-32-14.3-32-32l0-64c0-17.7 14.3-32 32-32zm192-16l-16 0L48 352c-26.5 0-48 21.5-48 48l0 64c0 26.5 21.5 48 48 48l176 0 16 0 240 0c17.7 0 32-14.3 32-32l0-96c0-17.7-14.3-32-32-32l-240 0zM480 496l-240 0 0-128 240 0c8.8 0 16 7.2 16 16l0 96c0 8.8-7.2 16-16 16zM640 360c0-4.4-3.6-8-8-8s-8 3.6-8 8l0 144c0 4.4 3.6 8 8 8s8-3.6 8-8l0-144zm-88-8c-4.4 0-8 3.6-8 8l0 144c0 4.4 3.6 8 8 8s8-3.6 8-8l0-144c0-4.4-3.6-8-8-8zm48 8c0-4.4-3.6-8-8-8s-8 3.6-8 8l0 144c0 4.4 3.6 8 8 8s8-3.6 8-8l0-144z"/></svg>

<svg xmlns="http://www.w3.org/2000/svg" viewBox="0 0 640 512"><!--! Font Awesome Pro 6.4.2 by @fontawesome - https://fontawesome.com License - https://fontawesome.com/license (Commercial License) Copyright 2023 Fonticons, Inc. --><path d="M456 0c-4.4 0-8 3.6-8 8V43c0 46.7 18.5 91.4 51.5 124.5l21 21c15 15 23.4 35.4 23.4 56.6v35c0 4.4 3.6 8 8 8s8-3.6 8-8V245c0-25.5-10.1-49.9-28.1-67.9l-21-21C480.9 126.1 464 85.4 464 43V8c0-4.4-3.6-8-8-8zM632 288c4.4 0 8-3.6 8-8V245c0-46.7-18.5-91.4-51.5-124.5l-21-21C552.4 84.5 544 64.2 544 43V8c0-4.4-3.6-8-8-8s-8 3.6-8 8V43c0 25.5 10.1 49.9 28.1 67.9l21 21c30 30 46.9 70.7 46.9 113.1v35c0 4.4 3.6 8 8 8zM48 368H224V496H48c-17.7 0-32-14.3-32-32V400c0-17.7 14.3-32 32-32zm192-16H224 48c-26.5 0-48 21.5-48 48v64c0 26.5 21.5 48 48 48H224h16H480c17.7 0 32-14.3 32-32V384c0-17.7-14.3-32-32-32H240zM480 496H240V368H480c8.8 0 16 7.2 16 16v96c0 8.8-7.2 16-16 16zM640 360c0-4.4-3.6-8-8-8s-8 3.6-8 8V504c0 4.4 3.6 8 8 8s8-3.6 8-8V360zm-88-8c-4.4 0-8 3.6-8 8V504c0 4.4 3.6 8 8 8s8-3.6 8-8V360c0-4.4-3.6-8-8-8zm48 8c0-4.4-3.6-8-8-8s-8 3.6-8 8V504c0 4.4 3.6 8 8 8s8-3.6 8-8V360z"/></svg>
